packages/ffe-icons/icons/filled/md/call_to_action.svg

<svg xmlns="http://www.w3.org/2000/svg" height="24" viewBox="0 -960 960 960" width="24"><path d="M172.309-180.001q-30.308 0-51.308-21t-21-51.308v-455.382q0-30.308 21-51.308t51.308-21h615.382q30.308 0 51.308 21t21 51.308v455.382q0 30.308-21 51.308t-51.308 21H172.309Zm127.691-110h360q20.769 0 35.384-14.615 14.615-14.615 14.615-35.384t-14.615-35.384Q680.769-389.999 660-389.999H300q-20.769 0-35.384 14.615-14.615 14.615-14.615 35.384t14.615 35.384q14.615 14.615 35.384 14.615Z"/></svg>

<svg xmlns="http://www.w3.org/2000/svg" height="24" viewBox="0 -960 960 960" width="24"><path d="M172.31-180Q142-180 121-201q-21-21-21-51.31v-455.38Q100-738 121-759q21-21 51.31-21h615.38Q818-780 839-759q21 21 21 51.31v455.38Q860-222 839-201q-21 21-51.31 21H172.31ZM300-290h360q20.77 0 35.38-14.62Q710-319.23 710-340q0-20.77-14.62-35.38Q680.77-390 660-390H300q-20.77 0-35.38 14.62Q250-360.77 250-340q0 20.77 14.62 35.38Q279.23-290 300-290Z"/></svg>
